X: 1493
T: Andy Broon's
R: reel
M: 4/4
K: Fmajor
ag|fcAf cAfc|AfcA a3 g|fcAf cAfc|eggf g2 ag|
fcAf cAfc|AfcA a3 g|fcAf cAfc|eggf g2||
fe|dBdf eceg|fefg agfe|dBdf eceg|f2 fe fgef|
dBdf eceg|fefg agfe|dBdf eceg|f2 fe f2||

